X:1
T:Title
%%score { ( 1 3 ) | ( 2 4 ) }
L:1/8
M:3/4
K:F
V:1 treble nm="Grand Piano"
V:3 treble 
V:2 bass 
V:4 bass 
V:1
 z2 z2[Q:1/4=100] F>G | A3 A [CGB]>[CEc] | [CFA]4 [CEB]>[CFA] | [CEG]4 [CEA]>[B,EG] | %4
 [A,F]4 [EG]>[FA] | [EG]3 [FA] [GB]>[FA] | [EG]4 [FA]>[GB] | A3 B c>B | A4 [Fd]>[Fd] | %9
 [Fc]3 [CFA] [CGB]>[CFA] | [EG]6 | [A,F]4 [CEG]2 | [CFA]6 | [DG]4 [D^FA]2 | [DGB]4 [CFA][B,DG] | %15
 F4 EG |[M:2/4] F4 |] %17
V:2
 z2 z2 [F,A,C]>[F,B,C] | [F,CF]3 [F,CF] E,>C, | F,4 G,>F, | C,4 C,>C, | F,4 [C,C]>[C,C] | %5
 [C,C]3 [C,C] [C,C]>[C,C] | [C,C]4 [F,C]>[E,C] | [F,CF]3 [G,CE] [A,CF]>[G,CE] | %8
 [F,CF]4[K:bass] [B,,B,]>[D,B,] | [F,A,]3 F, E,>F, | z2 z2 B,2 | D,4 C,2 | F,6 | B,,4 B,,2 | %14
 G,,4 A,,B,, | [C,A,C]4 G,B, |[M:2/4] [F,A,C]4 |] %17
V:3
 x6 | x6 | x6 | x6 | x6 | x6 | x6 | x6 | x6 | x6 | C4 z2 | x6 | x6 | x6 | x6 | x6 |[M:2/4] x4 |] %17
V:4
 x6 | x6 | x6 | x6 | x6 | x6 | x6 | x6 | x4[K:bass] x2 | x6 | C,6 | x6 | x6 | x6 | x6 | %15
 z2 z2 [C,C]2 |[M:2/4] x4 |] %17

